src/dsmComponents/Icons/download-24px.svg

<?xml version="1.0" encoding="UTF-8"?>
<svg width="24px" height="21px" viewBox="0 0 24 21" version="1.1" xmlns="http://www.w3.org/2000/svg" xmlns:xlink="http://www.w3.org/1999/xlink">
    <!-- Generator: Sketch 59.1 (86144) - https://sketch.com -->
    <title>download-24px</title>
    <desc>Created with Sketch.</desc>
    <defs>
        <path d="M7.5,0 L7.5,3 L3,3 L3,18 L21,18 L21,3 L16.5,3 L16.5,0 L22.5,0 C23.328,0 24,0.672 24,1.5 L24,19.5 C24,20.328 23.328,21 22.5,21 L1.5,21 C0.672,21 0,20.328 0,19.5 L0,1.5 C0,0.672 0.672,0 1.5,0 L7.5,0 Z M13.5,0 L13.5,9 L18,9 L12,15 L6,9 L10.5,9 L10.5,0 L13.5,0 Z" id="path-1"></path>
    </defs>
    <g id="Final" stroke="none" stroke-width="1" fill="none" fill-rule="evenodd">
        <g id="All-Nucleo-Icons" transform="translate(-608.000000, -2716.000000)">
            <g id="Solo/Nucleo/24px/download" transform="translate(608.000000, 2716.000000)">
                <g id="version-update">
                    <g id="Colour/Default-Colour">
                        <mask id="mask-2" fill="white">
                            <use xlink:href="#path-1"></use>
                        </mask>
                        <g id="Mask" fill-rule="nonzero"></g>
                        <g id="colour/neutral/chia" mask="url(#mask-2)" fill="#737373">
                            <g transform="translate(-20.000000, -21.000000)" id="Colour">
                                <rect x="0" y="0" width="64" height="64"></rect>
                            </g>
                        </g>
                    </g>
                </g>
            </g>
        </g>
    </g>
</svg>

<svg width="24" height="21" xmlns="http://www.w3.org/2000/svg" xmlns:xlink="http://www.w3.org/1999/xlink"><defs><path d="M7.5 0v3H3v15h18V3h-4.5V0h6A1.5 1.5 0 0124 1.5v18a1.5 1.5 0 01-1.5 1.5h-21A1.5 1.5 0 010 19.5v-18A1.5 1.5 0 011.5 0h6zm6 0v9H18l-6 6-6-6h4.5V0h3z" id="download-24px_svg__a"/></defs><use fill="#737373" xlink:href="#download-24px_svg__a" fill-rule="evenodd"/></svg>
